; generated by Slic3r 1.0.1 on 2014-05-16 at 18:00:16

; layer_height = 0.1
; perimeters = 2
; top_solid_layers = 3
; bottom_solid_layers = 5
; fill_density = 1
; perimeter_speed = 30
; infill_speed = 60
; travel_speed = 130
; nozzle_diameter = 0.4
; filament_diameter = 1.75
; extrusion_multiplier = 1
; perimeters extrusion width = 0.40mm
; infill extrusion width = 1.28mm
; solid infill extrusion width = 0.68mm
; top infill extrusion width = 0.68mm
; first layer extrusion width = 0.70mm

G21 ; set units to millimeters
M107
M190 S100 ; wait for bed temperature to be reached
M104 S230 ; set temperature
; --- MOVE THIS SECTION TO THE TOP AND DELETE THIS LINE ---
; filename = composition.3w
; machine = daVinciF10
; material = abs
; layer_height = 0.1
; total_layers = 173
; total_filament = 0.00
; extruder = 1
; --- END SECTION ---
M109 S230 ; wait for temperature to be reached
G90 ; use absolute coordinates
G92 E0
M82 ; use absolute distances for extrusion
G1 F1800.000 E-1.00000
G92 E0
G1 Z0.350 F7800.000
G1 X72.310 Y85.310 F7800.000
G1 E1.00000 F1800.000
G1 X73.310 Y84.480 E1.12020 F540.000
G1 X74.460 Y83.870 E1.24060
G1 X75.710 Y83.490 E1.36144
G1 X77.000 Y83.360 E1.48136
G1 X123.000 Y83.360 E5.73594
G1 X124.290 Y83.490 E5.85586
G1 X125.540 Y83.870 E5.97670
G1 X126.690 Y84.480 E6.09710
G1 X127.690 Y85.310 E6.21730
G1 X128.520 Y86.310 E6.33750
G1 X129.130 Y87.460 E6.45790
G1 X129.510 Y88.710 E6.57874
G1 X129.640 Y90.000 E6.69865
G1 X129.640 Y110.000 E8.54847
G1 X129.510 Y111.290 E8.66839
G1 X129.130 Y112.540 E8.78923
G1 X128.520 Y113.690 E8.90963
G1 X127.690 Y114.690 E9.02983
G1 X126.690 Y115.520 E9.15003
G1 X125.540 Y116.130 E9.27043
G1 X124.290 Y116.510 E9.39127
G1 X123.000 Y116.640 E9.51118
G1 X77.000 Y116.640 E13.76577
G1 X75.710 Y116.510 E13.88569
G1 X74.460 Y116.130 E14.00652
G1 X73.310 Y115.520 E14.12693
G1 X72.310 Y114.690 E14.24713
G1 X71.480 Y113.690 E14.36732
G1 X70.870 Y112.540 E14.48773
G1 X70.490 Y111.290 E14.60856
G1 X70.360 Y110.000 E14.72848
G1 X70.360 Y90.000 E16.57830
G1 X70.490 Y88.710 E16.69822
G1 X70.870 Y87.460 E16.81906
G1 X71.480 Y86.310 E16.93946
G1 X72.249 Y85.383 E17.05084
G1 F1800.000 E16.05084
G92 E0
G1 X77.986 Y90.986 F7800.000
G1 E1.00000 F1800.000
G1 X96.014 Y90.986 E2.66750 F540.000
G1 X96.014 Y109.014 E4.33499
G1 X77.986 Y109.014 E6.00249
G1 X77.986 Y91.081 E7.66117
G1 X77.350 Y90.350 F7800.000
G1 X96.650 Y90.350 E9.44625 F378.000
G1 X96.650 Y109.650 E11.23132
G1 X77.350 Y109.650 E13.01640
G1 X77.350 Y90.445 E14.79265
G1 X77.900 Y90.668 F7800.000
G1 X95.544 Y91.436 F7800.000
G1 X95.564 Y91.456 E14.79527 F1080.000
G1 X95.564 Y92.357 E14.87868
G1 X94.643 Y91.436 E14.99927
G1 X93.743 Y91.436 E15.08268
G1 X95.564 Y93.257 E15.32122
G1 X95.564 Y94.158 E15.40464
G1 X92.842 Y91.436 E15.76115
G1 X91.942 Y91.436 E15.84456
G1 X95.564 Y95.058 E16.31904
G1 X95.564 Y95.958 E16.40245
G1 X91.042 Y91.436 E16.99489
G1 X90.141 Y91.436 E17.07830
G1 X95.564 Y96.859 E17.78871
G1 X95.564 Y97.759 E17.87212
G1 X89.241 Y91.436 E18.70049
G1 X88.341 Y91.436 E18.78390
G1 X95.564 Y98.659 E19.73023
G1 X95.564 Y99.560 E19.81365
G1 X87.440 Y91.436 E20.87794
G1 X86.540 Y91.436 E20.96136
G1 X95.564 Y100.460 E22.14362
G1 X95.564 Y101.361 E22.22703
G1 X85.639 Y91.436 E23.52726
G1 X84.739 Y91.436 E23.61067
G1 X95.564 Y102.261 E25.02886
G1 X95.564 Y103.161 E25.11227
G1 X83.839 Y91.436 E26.64843
G1 X82.938 Y91.436 E26.73184
G1 X95.564 Y104.062 E28.38596
G1 X95.564 Y104.962 E28.46937
G1 X82.038 Y91.436 E30.24146
G1 X81.138 Y91.436 E30.32487
G1 X95.564 Y105.862 E32.21492
G1 X95.564 Y106.763 E32.29833
G1 X80.237 Y91.436 E34.30634
G1 X79.337 Y91.436 E34.38975
G1 X95.564 Y107.663 E36.51573
G1 X95.554 Y108.554 E36.59822
G1 X78.446 Y91.446 E38.83955
G1 X78.436 Y92.337 E38.92204
G1 X94.663 Y108.564 E41.04802
G1 X93.763 Y108.564 E41.13143
G1 X78.436 Y93.237 E43.13944
G1 X78.436 Y94.138 E43.22286
G1 X92.862 Y108.564 E45.11291
G1 X91.962 Y108.564 E45.19632
G1 X78.436 Y95.038 E46.96841
G1 X78.436 Y95.938 E47.05182
G1 X91.062 Y108.564 E48.70594
G1 X90.161 Y108.564 E48.78936
G1 X78.436 Y96.839 E50.32551
G1 X78.436 Y97.739 E50.40893
G1 X89.261 Y108.564 E51.82712
G1 X88.361 Y108.564 E51.91053
G1 X78.436 Y98.639 E53.21076
G1 X78.436 Y99.540 E53.29418
G1 X87.460 Y108.564 E54.47644
G1 X86.560 Y108.564 E54.55985
G1 X78.436 Y100.440 E55.62415
G1 X78.436 Y101.341 E55.70757
G1 X85.659 Y108.564 E56.65390
G1 X84.759 Y108.564 E56.73732
G1 X78.436 Y102.241 E57.56569
G1 X78.436 Y103.141 E57.64910
G1 X83.859 Y108.564 E58.35951
G1 X82.958 Y108.564 E58.44292
G1 X78.436 Y104.042 E59.03536
G1 X78.436 Y104.942 E59.11878
G1 X82.058 Y108.564 E59.59325
G1 X81.158 Y108.564 E59.67667
G1 X78.436 Y105.842 E60.03318
G1 X78.436 Y106.743 E60.11660
G1 X80.257 Y108.564 E60.35514
G1 X79.357 Y108.564 E60.43856
G1 X78.436 Y107.643 E60.55914
G1 X78.436 Y108.544 E60.64256
G1 X78.456 Y108.564 E60.64518
G1 F1800.000 E59.64518
G92 E0
G1 X103.986 Y109.014 F7800.000
G1 E1.00000 F1800.000
G1 X103.986 Y90.986 E2.66750 F540.000
G1 X122.014 Y90.986 E4.33499
G1 X122.014 Y109.014 E6.00249
G1 X104.081 Y109.014 E7.66117
G1 X103.350 Y109.650 F7800.000
G1 X103.350 Y90.350 E9.44625 F378.000
G1 X122.650 Y90.350 E11.23132
G1 X122.650 Y109.650 E13.01640
G1 X103.445 Y109.650 E14.79265
G1 X103.668 Y109.100 F7800.000
G1 X104.456 Y108.564 F7800.000
G1 X104.436 Y108.544 E14.79527 F1080.000
G1 X104.436 Y107.643 E14.87869
G1 X105.357 Y108.564 E14.99927
G1 X106.257 Y108.564 E15.08269
G1 X104.436 Y106.743 E15.32123
G1 X104.436 Y105.842 E15.40465
G1 X107.158 Y108.564 E15.76116
G1 X108.058 Y108.564 E15.84457
G1 X104.436 Y104.942 E16.31905
G1 X104.436 Y104.042 E16.40247
G1 X108.958 Y108.564 E16.99491
G1 X109.859 Y108.564 E17.07832
G1 X104.436 Y103.141 E17.78873
G1 X104.436 Y102.241 E17.87214
G1 X110.759 Y108.564 E18.70051
G1 X111.659 Y108.564 E18.78393
G1 X104.436 Y101.341 E19.73026
G1 X104.436 Y100.440 E19.81368
G1 X112.560 Y108.564 E20.87798
G1 X113.460 Y108.564 E20.96139
G1 X104.436 Y99.540 E22.14365
G1 X104.436 Y98.639 E22.22707
G1 X114.361 Y108.564 E23.52730
G1 X115.261 Y108.564 E23.61071
G1 X104.436 Y97.739 E25.02890
G1 X104.436 Y96.839 E25.11232
G1 X116.161 Y108.564 E26.64847
G1 X117.062 Y108.564 E26.73189
G1 X104.436 Y95.938 E28.38601
G1 X104.436 Y95.038 E28.46942
G1 X117.962 Y108.564 E30.24151
G1 X118.862 Y108.564 E30.32492
G1 X104.436 Y94.138 E32.21497
G1 X104.436 Y93.237 E32.29839
G1 X119.763 Y108.564 E34.30640
G1 X120.663 Y108.564 E34.38981
G1 X104.436 Y92.337 E36.51579
G1 X104.446 Y91.446 E36.59828
G1 X121.554 Y108.554 E38.83961
G1 X121.564 Y107.663 E38.92210
G1 X105.337 Y91.436 E41.04807
G1 X106.237 Y91.436 E41.13149
G1 X121.564 Y106.763 E43.13950
G1 X121.564 Y105.862 E43.22291
G1 X107.138 Y91.436 E45.11296
G1 X108.038 Y91.436 E45.19637
G1 X121.564 Y104.962 E46.96846
G1 X121.564 Y104.062 E47.05187
G1 X108.938 Y91.436 E48.70599
G1 X109.839 Y91.436 E48.78940
G1 X121.564 Y103.161 E50.32556
G1 X121.564 Y102.261 E50.40897
G1 X110.739 Y91.436 E51.82716
G1 X111.639 Y91.436 E51.91057
G1 X121.564 Y101.361 E53.21080
G1 X121.564 Y100.460 E53.29421
G1 X112.540 Y91.436 E54.47647
G1 X113.440 Y91.436 E54.55989
G1 X121.564 Y99.560 E55.62418
G1 X121.564 Y98.659 E55.70760
G1 X114.341 Y91.436 E56.65393
G1 X115.241 Y91.436 E56.73734
G1 X121.564 Y97.759 E57.56571
G1 X121.564 Y96.859 E57.64912
G1 X116.141 Y91.436 E58.35953
G1 X117.042 Y91.436 E58.44294
G1 X121.564 Y95.958 E59.03538
G1 X121.564 Y95.058 E59.11879
G1 X117.942 Y91.436 E59.59327
G1 X118.842 Y91.436 E59.67668
G1 X121.564 Y94.158 E60.03319
G1 X121.564 Y93.257 E60.11661
G1 X119.743 Y91.436 E60.35515
G1 X120.643 Y91.436 E60.43856
G1 X121.564 Y92.357 E60.55915
G1 X121.564 Y91.456 E60.64256
G1 X121.544 Y91.436 E60.64518
M106 S255
M104 S220 ; set temperature
M140 S80 ; set bed temperature
G1 F1800.000 E59.64518
G92 E0
G1 Z0.450 F7800.000
G1 X96.400 Y90.600 F7800.000
G1 E1.00000 F1800.000
G1 X96.400 Y109.400 E1.31265 F1795.635
G1 X77.600 Y109.400 E1.62529
G1 X77.600 Y90.600 E1.93794
G1 X96.340 Y90.600 E2.24958
G1 X96.800 Y90.200 F7800.000
G1 X96.800 Y109.800 E2.57553 F1256.945
G1 X77.200 Y109.800 E2.90148
G1 X77.200 Y90.200 E3.22743
G1 X96.740 Y90.200 E3.55238
G1 X96.600 Y90.546 F7800.000
G1 X96.062 Y109.042 F7800.000
G1 X96.042 Y109.062 E3.55318 F3591.271
G1 X95.089 Y109.062 E3.57987
G1 X96.062 Y108.089 E3.61840
G1 X96.062 Y107.136 E3.64509
G1 X94.136 Y109.062 E3.72138
G1 X93.183 Y109.062 E3.74807
G1 X96.062 Y106.183 E3.86209
G1 X96.062 Y105.231 E3.88878
G1 X92.231 Y109.062 E4.04056
G1 X91.278 Y109.062 E4.06725
G1 X96.062 Y104.278 E4.25677
G1 X96.062 Y103.325 E4.28346
G1 X90.325 Y109.062 E4.51072
G1 X89.372 Y109.062 E4.53741
G1 X96.062 Y102.372 E4.80242
G1 X96.062 Y101.419 E4.82911
G1 X88.419 Y109.062 E5.13186
G1 X87.466 Y109.062 E5.15855
G1 X96.062 Y100.466 E5.49905
G1 X96.062 Y99.514 E5.52574
G1 X86.514 Y109.062 E5.90399
G1 X85.561 Y109.062 E5.93068
G1 X96.062 Y98.561 E6.34667
G1 X96.062 Y97.608 E6.37336
G1 X84.608 Y109.062 E6.82709
G1 X83.655 Y109.062 E6.85378
G1 X96.062 Y96.655 E7.34526
G1 X96.062 Y95.702 E7.37195
G1 X82.702 Y109.062 E7.90118
G1 X81.749 Y109.062 E7.92787
G1 X96.062 Y94.749 E8.49484
G1 X96.062 Y93.797 E8.52153
G1 X80.797 Y109.062 E9.12625
G1 X79.844 Y109.062 E9.15294
G1 X96.062 Y92.844 E9.79540
G1 X96.062 Y91.891 E9.82209
G1 X78.891 Y109.062 E10.50229
G1 X77.948 Y109.052 E10.52871
G1 X96.052 Y90.948 E11.24586
G1 X95.109 Y90.938 E11.27228
G1 X77.938 Y108.109 E11.95248
G1 X77.938 Y107.156 E11.97917
G1 X94.156 Y90.938 E12.62163
G1 X93.203 Y90.938 E12.64832
G1 X77.938 Y106.203 E13.25304
G1 X77.938 Y105.251 E13.27973
G1 X92.251 Y90.938 E13.84670
G1 X91.298 Y90.938 E13.87339
G1 X77.938 Y104.298 E14.40261
G1 X77.938 Y103.345 E14.42930
G1 X90.345 Y90.938 E14.92078
G1 X89.392 Y90.938 E14.94747
G1 X77.938 Y102.392 E15.40120
G1 X77.938 Y101.439 E15.42789
G1 X88.439 Y90.938 E15.84388
G1 X87.486 Y90.938 E15.87057
G1 X77.938 Y100.486 E16.24881
G1 X77.938 Y99.534 E16.27550
G1 X86.534 Y90.938 E16.61600
G1 X85.581 Y90.938 E16.64269
G1 X77.938 Y98.581 E16.94544
G1 X77.938 Y97.628 E16.97213
G1 X84.628 Y90.938 E17.23714
G1 X83.675 Y90.938 E17.26383
G1 X77.938 Y96.675 E17.49109
G1 X77.938 Y95.722 E17.51778
G1 X82.722 Y90.938 E17.70730
G1 X81.769 Y90.938 E17.73399
G1 X77.938 Y94.769 E17.88576
G1 X77.938 Y93.817 E17.91245
G1 X80.817 Y90.938 E18.02648
G1 X79.864 Y90.938 E18.05317
G1 X77.938 Y92.864 E18.12945
G1 X77.938 Y91.911 E18.15614
G1 X78.911 Y90.938 E18.19467
G1 X77.958 Y90.938 E18.22136
G1 X77.938 Y90.958 E18.22215
G1 F1800.000 E17.22215
G92 E0
G1 X103.600 Y90.600 F7800.000
G1 E1.00000 F1800.000
G1 X122.400 Y90.600 E1.31265 F1795.635
G1 X122.400 Y109.400 E1.62529
G1 X103.600 Y109.400 E1.93794
G1 X103.600 Y90.660 E2.24958
G1 X103.200 Y90.200 F7800.000
G1 X122.800 Y90.200 E2.57553 F1256.945
G1 X122.800 Y109.800 E2.90148
G1 X103.200 Y109.800 E3.22743
G1 X103.200 Y90.260 E3.55238
G1 X103.546 Y90.400 F7800.000
G1 X103.938 Y90.958 F7800.000
G1 X103.958 Y90.938 E3.55317 F3591.271
G1 X104.911 Y90.938 E3.57986
G1 X103.938 Y91.911 E3.61840
G1 X103.938 Y92.864 E3.64509
G1 X105.864 Y90.938 E3.72137
G1 X106.817 Y90.938 E3.74806
G1 X103.938 Y93.817 E3.86209
G1 X103.938 Y94.769 E3.88878
G1 X107.769 Y90.938 E4.04055
G1 X108.722 Y90.938 E4.06724
G1 X103.938 Y95.722 E4.25675
G1 X103.938 Y96.675 E4.28344
G1 X109.675 Y90.938 E4.51071
G1 X110.628 Y90.938 E4.53740
G1 X103.938 Y97.628 E4.80240
G1 X103.938 Y98.581 E4.82909
G1 X111.581 Y90.938 E5.13185
G1 X112.534 Y90.938 E5.15854
G1 X103.938 Y99.534 E5.49903
G1 X103.938 Y100.486 E5.52572
G1 X113.486 Y90.938 E5.90397
G1 X114.439 Y90.938 E5.93066
G1 X103.938 Y101.439 E6.34664
G1 X103.938 Y102.392 E6.37333
G1 X115.392 Y90.938 E6.82707
G1 X116.345 Y90.938 E6.85376
G1 X103.938 Y103.345 E7.34524
G1 X103.938 Y104.298 E7.37193
G1 X117.298 Y90.938 E7.90115
G1 X118.251 Y90.938 E7.92784
G1 X103.938 Y105.251 E8.49481
G1 X103.938 Y106.203 E8.52150
G1 X119.203 Y90.938 E9.12621
G1 X120.156 Y90.938 E9.15290
G1 X103.938 Y107.156 E9.79536
G1 X103.938 Y108.109 E9.82205
G1 X121.109 Y90.938 E10.50226
G1 X122.052 Y90.948 E10.52867
G1 X103.948 Y109.052 E11.24583
G1 X104.891 Y109.062 E11.27224
G1 X122.062 Y91.891 E11.95245
G1 X122.062 Y92.844 E11.97914
G1 X105.844 Y109.062 E12.62160
G1 X106.797 Y109.062 E12.64829
G1 X122.062 Y93.797 E13.25301
G1 X122.062 Y94.749 E13.27970
G1 X107.749 Y109.062 E13.84667
G1 X108.702 Y109.062 E13.87336
G1 X122.062 Y95.702 E14.40258
G1 X122.062 Y96.655 E14.42927
G1 X109.655 Y109.062 E14.92075
G1 X110.608 Y109.062 E14.94744
G1 X122.062 Y97.608 E15.40118
G1 X122.062 Y98.561 E15.42787
G1 X111.561 Y109.062 E15.84386
G1 X112.514 Y109.062 E15.87055
G1 X122.062 Y99.514 E16.24879
G1 X122.062 Y100.466 E16.27548
G1 X113.466 Y109.062 E16.61598
G1 X114.419 Y109.062 E16.64267
G1 X122.062 Y101.419 E16.94543
G1 X122.062 Y102.372 E16.97212
G1 X115.372 Y109.062 E17.23713
G1 X116.325 Y109.062 E17.26382
G1 X122.062 Y103.325 E17.49108
G1 X122.062 Y104.278 E17.51777
G1 X117.278 Y109.062 E17.70729
G1 X118.231 Y109.062 E17.73398
G1 X122.062 Y105.231 E17.88575
G1 X122.062 Y106.183 E17.91244
G1 X119.183 Y109.062 E18.02647
G1 X120.136 Y109.062 E18.05316
G1 X122.062 Y107.136 E18.12944
G1 X122.062 Y108.089 E18.15613
G1 X121.089 Y109.062 E18.19467
G1 X122.042 Y109.062 E18.22136
G1 X122.062 Y109.042 E18.22215
G1 F1800.000 E17.22215
G92 E0
G1 Z0.550 F7800.000
G1 X96.400 Y109.400 F7800.000
G1 E1.00000 F1800.000
G1 X77.600 Y109.400 E1.31265 F1795.635
G1 X77.600 Y90.600 E1.62529
G1 X96.400 Y90.600 E1.93794
G1 X96.400 Y109.340 E2.24958
G1 X96.800 Y109.800 F7800.000
G1 X77.200 Y109.800 E2.57553 F1256.945
G1 X77.200 Y90.200 E2.90148
G1 X96.800 Y90.200 E3.22743
G1 X96.800 Y109.740 E3.55238
G1 X96.454 Y109.600 F7800.000
G1 X77.958 Y109.062 F7800.000
G1 X77.938 Y109.042 E3.55318 F3591.271
G1 X77.938 Y108.089 E3.57987
G1 X78.911 Y109.062 E3.61840
G1 X79.864 Y109.062 E3.64509
G1 X77.938 Y107.136 E3.72138
G1 X77.938 Y106.183 E3.74807
G1 X80.817 Y109.062 E3.86209
G1 X81.769 Y109.062 E3.88878
G1 X77.938 Y105.231 E4.04056
G1 X77.938 Y104.278 E4.06725
G1 X82.722 Y109.062 E4.25677
G1 X83.675 Y109.062 E4.28346
G1 X77.938 Y103.325 E4.51072
G1 X77.938 Y102.372 E4.53741
G1 X84.628 Y109.062 E4.80242
G1 X85.581 Y109.062 E4.82911
G1 X77.938 Y101.419 E5.13186
G1 X77.938 Y100.466 E5.15855
G1 X86.534 Y109.062 E5.49905
G1 X87.486 Y109.062 E5.52574
G1 X77.938 Y99.514 E5.90399
G1 X77.938 Y98.561 E5.93068
G1 X88.439 Y109.062 E6.34667
G1 X89.392 Y109.062 E6.37336
G1 X77.938 Y97.608 E6.82709
G1 X77.938 Y96.655 E6.85378
G1 X90.345 Y109.062 E7.34526
G1 X91.298 Y109.062 E7.37195
G1 X77.938 Y95.702 E7.90118
G1 X77.938 Y94.749 E7.92787
G1 X92.251 Y109.062 E8.49484
G1 X93.203 Y109.062 E8.52153
G1 X77.938 Y93.797 E9.12625
G1 X77.938 Y92.844 E9.15294
G1 X94.156 Y109.062 E9.79540
G1 X95.109 Y109.062 E9.82209
G1 X77.938 Y91.891 E10.50229
G1 X77.948 Y90.948 E10.52871
G1 X96.052 Y109.052 E11.24586
G1 X96.062 Y108.109 E11.27228
G1 X78.891 Y90.938 E11.95248
G1 X79.844 Y90.938 E11.97917
G1 X96.062 Y107.156 E12.62163
G1 X96.062 Y106.203 E12.64832
G1 X80.797 Y90.938 E13.25304
G1 X81.749 Y90.938 E13.27973
G1 X96.062 Y105.251 E13.84669
G1 X96.062 Y104.298 E13.87338
G1 X82.702 Y90.938 E14.40261
G1 X83.655 Y90.938 E14.42930
G1 X96.062 Y103.345 E14.92078
G1 X96.062 Y102.392 E14.94747
G1 X84.608 Y90.938 E15.40120
G1 X85.561 Y90.938 E15.42789
G1 X96.062 Y101.439 E15.84388
G1 X96.062 Y100.486 E15.87057
G1 X86.514 Y90.938 E16.24881
G1 X87.466 Y90.938 E16.27550
G1 X96.062 Y99.534 E16.61600
G1 X96.062 Y98.581 E16.64269
G1 X88.419 Y90.938 E16.94544
G1 X89.372 Y90.938 E16.97213
G1 X96.062 Y97.628 E17.23714
G1 X96.062 Y96.675 E17.26383
G1 X90.325 Y90.938 E17.49109
G1 X91.278 Y90.938 E17.51778
G1 X96.062 Y95.722 E17.70730
G1 X96.062 Y94.769 E17.73399
G1 X92.231 Y90.938 E17.88576
G1 X93.183 Y90.938 E17.91245
G1 X96.062 Y93.817 E18.02648
G1 X96.062 Y92.864 E18.05317
G1 X94.136 Y90.938 E18.12945
G1 X95.089 Y90.938 E18.15614
G1 X96.062 Y91.911 E18.19467
G1 X96.062 Y90.958 E18.22136
G1 X96.042 Y90.938 E18.22215
G1 F1800.000 E17.22215
G92 E0
G1 X103.600 Y90.600 F7800.000
G1 E1.00000 F1800.000
G1 X122.400 Y90.600 E1.31265 F1795.635
G1 X122.400 Y109.400 E1.62529
G1 X103.600 Y109.400 E1.93794
